public/piece/anarcandy/wB.svg

<svg xmlns="http://www.w3.org/2000/svg" width="512" height="512" fill="none"><path fill="#00173C" d="M155.535 228.37C193.7 173.432 186.986 85.45 255.731 85.45c68.744 0 62.027 87.985 100.196 142.92 30.882 44.451 51.539 82.662 51.539 122.498 0 88.497-62.715 138.898-150.863 139.558l.003.028c-.293 0-.575-.011-.871-.014-.293.003-.576.014-.872.014v-.025C166.712 489.766 104 439.366 104 350.871c.007-39.838 20.664-78.048 51.546-122.497l-.011-.004Z"/><path fill="#FF9CAE" fill-rule="evenodd" d="M193.727 188.72c-3.558 9.781-7.603 19.935-12.582 29.841l-5.074 9.489-6.452 10.101c-30.81 44.345-48.476 78.673-48.483 112.723 0 39.925 13.993 69.778 36.627 89.909 22.9 20.368 56.276 32.203 97.229 32.511l.503.004.98-.008c40.951-.306 74.326-12.14 97.227-32.508 22.635-20.132 36.628-49.987 36.628-89.914 0-34.044-17.664-68.372-48.476-112.721-10.816-15.567-18.153-33.021-24.121-49.425-2.565-7.05-4.779-13.582-6.889-19.807-3.108-9.168-5.989-17.669-9.433-26.175-5.556-13.724-11.234-23.682-18.162-30.231-6.308-5.963-14.507-9.923-27.518-9.923-13.011 0-21.211 3.96-27.519 9.923-6.928 6.549-12.607 16.507-18.163 30.23-3.444 8.506-6.326 17.008-9.434 26.176l-.001.005c-2.109 6.223-4.323 12.753-6.887 19.8Z" clip-rule="evenodd"/><path fill="#00173C" d="M244.634 119.424c.184.396.393.769.622 1.116-3.45.287-6.502.205-8.546-.012a6.719 6.719 0 0 0-7.393 5.971 6.719 6.719 0 0 0 5.971 7.393c4.377.466 11.286.453 18.447-.996 7.08-1.431 15.244-4.437 21.191-10.632a6.72 6.72 0 0 0-9.695-9.308c-.431.449-.895.877-1.387 1.285-3.774-8.362-13.377-33.498-8.892-63.441.399-2.66-1.333-5.219-3.98-5.69l-11.434-2.035c-2.573-.458-5.05 1.228-5.457 3.81-5.1 32.368 4.503 59.501 10.553 72.539ZM349.297 395.86a90.345 90.345 0 0 1-18.436 22.16v.004a93.676 93.676 0 0 1-3.803 3.144c-2.682 2.101-5.773-2.002-3.732-4.73 37.565-50.212 11.911-127.204-.683-164.999-.593-1.781-1.158-3.475-1.685-5.075-.229-.983 1.223-1.58 1.774-.734a128.38 128.38 0 0 0 1.997 2.972c23.146 33.262 38.571 61.962 38.571 91.8 0 21.614-4.991 40.202-14.003 55.458Z"/><path fill="#810F23" fill-rule="evenodd" d="m230.512 279.792-9.442-34.046c-2.518-.838-3.497 8.031-3.672 12.571.35 2.27.734 6.809-.525 6.809s-1.224 5.587-1.049 8.381c-2.518 2.514-5.245 7.333-6.294 9.428-3.777.419-12.765 3.667-16.786 5.238 0 1.027-1.12 1.83-2.335 2.701-.645.463-1.316.945-1.862 1.489l-5.246 5.238c-1.635-1.306-2.862 1.867-3.809 4.315l-.106.274c-.524 1.35-.96 2.405-1.33 2.221-.839-.42-6.295 9.253-8.918 14.142.42.838-3.672 13.618-5.77 19.904-4.721 1.746-14.268 5.238-14.688 5.238-.15 0-.691.13-1.409.302-1.782.428-4.662 1.119-5.41.745-1.049-.523-1.574 2.619-1.574 4.715 0 1.413 6.212 1.635 10.573 1.79 2.102.075 3.774.134 4.115.305.839.419 1.749-1.222 2.098-2.095.525.698 1.679 1.99 2.099 1.571.419-.419 4.021-.175 5.77 0 0 1.397.315 4.295 1.573 4.714-.349.349-.839 1.886 0 5.238 1.05 4.19 3.148 7.857 3.148 8.381 0 .419 3.497 4.365 5.245 6.285l1.05.524v1.048l5.048 4.39c.941.895 1.443 1.371 1.246 1.371-.839 0-.349 4.889 0 7.333-.839 0-1.399 3.143-1.573 4.714-2.099 2.515-.875 6.984 0 8.905 3.357.838 4.546-.699 4.721-1.571.524-1.048 1.573-3.457 1.573-4.715 0-1.257 1.049-2.968 1.574-3.666.35-1.921 1.259-5.657 2.098-5.238 0-.873.21-2.514 1.049-2.095.7.524 2.308 1.571 3.148 1.571.839 0 3.497 2.445 4.721 3.667 1.049.524 3.672 1.466 5.77 1.047 1.399.524 4.406 1.572 5.246 1.572.839 0 1.748.698 2.098 1.047 2.273.175 7.029.524 7.868.524 1.049 0 7.869 1.571 9.442 0 1.574-1.571 6.82 1.048 6.82-.524 5.036-.838 13.289-5.587 16.786-7.857 1.399-.174 3.882-.314 2.623.524-1.259.838 1.923 2.445 3.672 3.143-.42 2.933 3.322 8.555 5.245 11 2.973 1.92 8.288 4.295 5.77-1.572-2.518-5.866-3.497-16.761-3.672-21.475-1.678 0 .35-4.54 1.574-6.81 2.098-1.222 6.085-4.19 5.246-6.285-.84-2.095.699-3.667 1.573-4.19-.349-1.572-.839-4.505 0-3.667.84.838 1.749-3.492 2.099-5.762-1.679-.838-.35-4.888.524-6.809 2.098.838 5.77-1.048 7.344-2.095.42-2.095 10.316-4.016 15.212-4.714l1.049-4.714-23.08-1.572c0-2.933-1.399-5.761-2.099-6.809 3.358-2.514-.349-9.777-2.622-13.095.839-3.352-7.344-11.872-11.541-15.714-2.098-3.352-5.77-6.983-7.344-8.38-2.622-.175-8.707-1.467-12.065-5.238-3.357-3.771-9.791-4.016-12.589-3.667Zm-2.098 34.571c-1.679-.419-5.596-13.444-7.344-19.904 0 .216-.884 2.299-1.932 4.77l-.001.001c-.983 2.319-2.111 4.977-2.788 6.752 1.15 1.913-.221 6.343-1.042 9-.303.979-.532 1.717-.532 2 0 .271-.635 1.564-1.502 3.331-2.478 5.046-6.852 13.954-3.743 13.954 3.357 0 10.141 1.396 13.114 2.095 5.455-.419 11.715-2.619 14.163-3.667-2.098-5.936-6.715-17.913-8.393-18.332Zm32.523 30.903c-2.099 1.257-5.071.873-6.295.524 1.259 2.095.524 5.762 0 7.333 1.678 2.095 1.748 5.413 1.574 6.809 1.049.524 3.252 1.781 3.671 2.619.42.838 1.224-.698 1.574-1.571-.419-.838-.175-2.794 0-3.667 2.098-2.514 3.322-9.079 3.672-12.047-.524-.524-2.098-1.257-4.196 0Zm-68.718-36.141c1.679-2.095 10.491-7.508 14.688-9.952.419 2.933-1.924 8.206-3.148 10.475-.349 2.096-1.364 6.391-2.622 6.81-1.259.419-1.224 4.365-1.05 6.285-2.517 3.353-3.147 9.079-3.147 11.524-.42.419-5.42-.524-7.868-1.048-1.05.524-11.541 3.143-9.967.524 1.574-2.619 2.098-4.714 1.574-4.714-.42 0 1.224-3.492 2.098-5.238-.839-.838.699-2.445 1.574-3.143-1.259-2.095 2.273-5.762 4.196-7.333.525-.524 1.993-2.095 3.672-4.19Zm-13.114 40.332c2.098-.175 6.505-.629 7.344-1.048 1.049.175 3.567.419 5.245 0-1.398 1.921-4.091 6.076-3.672 7.333-1.223 2.095-3.357 6.6-2.098 7.857-.51 1.189-1.318 3.633-.59 4.151-1.766-1.062-5.07-3.213-4.655-3.627.419-.419-.525-4.365-1.05-6.286-.174-1.396-.419-4.295 0-4.714-.524-1.047-1.363-3.247-.524-3.666Zm57.702-51.332c4.021 2.619 12.17 7.857 12.589 7.857.525 0 11.541 9.952 14.163 18.333 1.05.523 3.148 2.933 3.148 8.38-.375 0-.885.04-1.436.082-1.247.096-2.703.209-3.285-.082-.84-.419-8.743.524-12.59 1.048-1.049-3.667-3.882-11.838-6.819-15.19.35-.524.524-2.41-1.574-5.762-2.623-4.19-6.819-13.095-4.196-14.666Zm-30.425 48.713c2.798-.175 8.603-.21 9.442 1.047 1.399-.698 4.721-1.676 6.82 0 2.098 1.676 12.414 0 17.31-1.047.35 2.095 1.259 6.18 2.098 5.761-.524.524-.419 3.667 4.197 12.048.175 2.619.944 7.856 2.623 7.856 1.678 0 .349 2.096-.525 3.143-1.049 1.222-3.986 3.876-7.344 4.714-4.196 1.048-9.966 2.619-12.065 3.667-1.678.838-9.442-.349-13.114-1.048l-.524 1.048c-2.098-1.746-6.82-4.924-8.918-3.667-1.923-1.746-5.98-4.923-6.819-3.666-1.049 1.571-3.147-4.714-2.098-4.191.839.419 1.398-6.809 1.573-10.475 2.099-3.842 6.295-11.629 6.295-12.048 0-.081-.013-.201-.028-.348-.085-.791-.251-2.352 1.077-2.794Z" clip-rule="evenodd"/></svg>

<svg width="512" height="512" viewBox="0 0 512 512" fill="none" xmlns="http://www.w3.org/2000/svg">
<path d="M155.535 228.37C193.7 173.432 186.986 85.4504 255.731 85.4504C324.475 85.4504 317.758 173.435 355.927 228.37C386.809 272.821 407.466 311.032 407.466 350.868C407.466 439.365 344.751 489.766 256.603 490.426L256.606 490.454C256.313 490.454 256.031 490.443 255.735 490.44C255.442 490.443 255.159 490.454 254.863 490.454V490.429C166.712 489.766 104 439.366 104 350.871C104.007 311.033 124.664 272.823 155.546 228.374L155.535 228.37Z" fill="#00173C"/>
<path fill-rule="evenodd" clip-rule="evenodd" d="M193.727 188.72C190.169 198.501 186.124 208.655 181.145 218.561L176.071 228.05L169.619 238.151C138.809 282.496 121.143 316.824 121.136 350.874C121.136 390.799 135.129 420.652 157.763 440.783C180.663 461.151 214.039 472.986 254.992 473.294L255.495 473.298L256.475 473.29C297.426 472.984 330.801 461.15 353.702 440.782C376.337 420.65 390.33 390.795 390.33 350.868C390.33 316.824 372.666 282.496 341.854 238.147C331.038 222.58 323.701 205.126 317.733 188.722C315.168 181.672 312.954 175.14 310.844 168.915C307.736 159.747 304.855 151.246 301.411 142.74C295.855 129.016 290.177 119.058 283.249 112.509C276.941 106.546 268.742 102.586 255.731 102.586C242.72 102.586 234.52 106.546 228.212 112.509C221.284 119.058 215.605 129.016 210.049 142.739C206.605 151.245 203.723 159.747 200.615 168.915L200.614 168.92C198.505 175.143 196.291 181.673 193.727 188.72Z" fill="#FF9CAE"/>
<path d="M244.634 119.424C244.818 119.82 245.027 120.193 245.256 120.54C241.806 120.827 238.754 120.745 236.71 120.528C233.019 120.135 229.709 122.809 229.317 126.499C228.924 130.19 231.598 133.5 235.288 133.892C239.665 134.358 246.574 134.345 253.735 132.896C260.815 131.465 268.979 128.459 274.926 122.264C277.496 119.586 277.41 115.333 274.732 112.762C272.055 110.192 267.801 110.279 265.231 112.956C264.8 113.405 264.336 113.833 263.844 114.241C260.07 105.879 250.467 80.7426 254.952 50.7997C255.351 48.1409 253.619 45.5814 250.972 45.1103L239.538 43.075C236.965 42.617 234.488 44.3028 234.081 46.8841C228.981 79.2532 238.584 106.386 244.634 119.424Z" fill="#00173C"/>
<path d="M349.297 395.86C344.321 404.274 338.122 411.684 330.861 418.02L330.861 418.024C329.624 419.103 328.356 420.151 327.058 421.168C324.376 423.269 321.285 419.166 323.326 416.438C360.891 366.226 335.237 289.234 322.643 251.439C322.05 249.658 321.485 247.964 320.958 246.364C320.729 245.381 322.181 244.784 322.732 245.63C323.431 246.7 324.121 247.727 324.729 248.602C347.875 281.864 363.3 310.564 363.3 340.402C363.3 362.016 358.309 380.604 349.297 395.86Z" fill="#00173C"/>
<path fill-rule="evenodd" clip-rule="evenodd" d="M230.512 279.792L221.07 245.746C218.552 244.908 217.573 253.777 217.398 258.317C217.748 260.587 218.132 265.126 216.873 265.126C215.614 265.126 215.649 270.713 215.824 273.507C213.306 276.021 210.579 280.84 209.53 282.935C205.753 283.354 196.765 286.602 192.744 288.173C192.744 289.2 191.624 290.003 190.409 290.874C189.764 291.337 189.093 291.819 188.547 292.363L183.301 297.601C181.666 296.295 180.439 299.468 179.492 301.916L179.386 302.19C178.862 303.54 178.426 304.595 178.056 304.411C177.217 303.991 171.761 313.664 169.138 318.553C169.558 319.391 165.466 332.171 163.368 338.457C158.647 340.203 149.1 343.695 148.68 343.695C148.53 343.695 147.989 343.825 147.271 343.997C145.489 344.425 142.609 345.116 141.861 344.742C140.812 344.219 140.287 347.361 140.287 349.457C140.287 350.87 146.499 351.092 150.86 351.247C152.962 351.322 154.634 351.381 154.975 351.552C155.814 351.971 156.724 350.33 157.073 349.457C157.598 350.155 158.752 351.447 159.172 351.028C159.591 350.609 163.193 350.853 164.942 351.028C164.942 352.425 165.257 355.323 166.515 355.742C166.166 356.091 165.676 357.628 166.515 360.98C167.565 365.17 169.663 368.837 169.663 369.361C169.663 369.78 173.16 373.726 174.908 375.646L175.958 376.17V377.218L181.006 381.608C181.947 382.503 182.449 382.979 182.252 382.979C181.413 382.979 181.903 387.868 182.252 390.312C181.413 390.312 180.853 393.455 180.679 395.026C178.58 397.541 179.804 402.01 180.679 403.931C184.036 404.769 185.225 403.232 185.4 402.36C185.924 401.312 186.973 398.903 186.973 397.645C186.973 396.388 188.022 394.677 188.547 393.979C188.897 392.058 189.806 388.322 190.645 388.741C190.645 387.868 190.855 386.227 191.694 386.646C192.394 387.17 194.002 388.217 194.842 388.217C195.681 388.217 198.339 390.662 199.563 391.884C200.612 392.408 203.235 393.35 205.333 392.931C206.732 393.455 209.739 394.503 210.579 394.503C211.418 394.503 212.327 395.201 212.677 395.55C214.95 395.725 219.706 396.074 220.545 396.074C221.594 396.074 228.414 397.645 229.987 396.074C231.561 394.503 236.807 397.122 236.807 395.55C241.843 394.712 250.096 389.963 253.593 387.693C254.992 387.519 257.475 387.379 256.216 388.217C254.957 389.055 258.139 390.662 259.888 391.36C259.468 394.293 263.21 399.915 265.133 402.36C268.106 404.28 273.421 406.655 270.903 400.788C268.385 394.922 267.406 384.027 267.231 379.313C265.553 379.313 267.581 374.773 268.805 372.503C270.903 371.281 274.89 368.313 274.051 366.218C273.211 364.123 274.75 362.551 275.624 362.028C275.275 360.456 274.785 357.523 275.624 358.361C276.464 359.199 277.373 354.869 277.723 352.599C276.044 351.761 277.373 347.711 278.247 345.79C280.345 346.628 284.017 344.742 285.591 343.695C286.011 341.6 295.907 339.679 300.803 338.981L301.852 334.267L278.772 332.695C278.772 329.762 277.373 326.934 276.673 325.886C280.031 323.372 276.324 316.109 274.051 312.791C274.89 309.439 266.707 300.919 262.51 297.077C260.412 293.725 256.74 290.094 255.166 288.697C252.544 288.522 246.459 287.23 243.101 283.459C239.744 279.688 233.31 279.443 230.512 279.792ZM228.414 314.363C226.735 313.944 222.818 300.919 221.07 294.459C221.07 294.675 220.186 296.758 219.138 299.229L219.137 299.23C218.154 301.549 217.026 304.207 216.349 305.982C217.499 307.895 216.128 312.325 215.307 314.982C215.004 315.961 214.775 316.699 214.775 316.982C214.775 317.253 214.14 318.546 213.273 320.313C210.795 325.359 206.421 334.267 209.53 334.267C212.887 334.267 219.671 335.663 222.644 336.362C228.099 335.943 234.359 333.743 236.807 332.695C234.709 326.759 230.092 314.782 228.414 314.363ZM260.937 345.266C258.838 346.523 255.866 346.139 254.642 345.79C255.901 347.885 255.166 351.552 254.642 353.123C256.32 355.218 256.39 358.536 256.216 359.932C257.265 360.456 259.468 361.713 259.887 362.551C260.307 363.389 261.111 361.853 261.461 360.98C261.042 360.142 261.286 358.186 261.461 357.313C263.559 354.799 264.783 348.234 265.133 345.266C264.609 344.742 263.035 344.009 260.937 345.266ZM192.219 309.125C193.898 307.03 202.71 301.617 206.907 299.173C207.326 302.106 204.983 307.379 203.759 309.648C203.41 311.744 202.395 316.039 201.137 316.458C199.878 316.877 199.913 320.823 200.087 322.743C197.57 326.096 196.94 331.822 196.94 334.267C196.52 334.686 191.52 333.743 189.072 333.219C188.022 333.743 177.531 336.362 179.105 333.743C180.679 331.124 181.203 329.029 180.679 329.029C180.259 329.029 181.903 325.537 182.777 323.791C181.938 322.953 183.476 321.346 184.351 320.648C183.092 318.553 186.624 314.886 188.547 313.315C189.072 312.791 190.54 311.22 192.219 309.125ZM179.105 349.457C181.203 349.282 185.61 348.828 186.449 348.409C187.498 348.584 190.016 348.828 191.694 348.409C190.296 350.33 187.603 354.485 188.022 355.742C186.799 357.837 184.665 362.342 185.924 363.599C185.414 364.788 184.606 367.232 185.334 367.75C183.568 366.688 180.264 364.537 180.679 364.123C181.098 363.704 180.154 359.758 179.629 357.837C179.455 356.441 179.21 353.542 179.629 353.123C179.105 352.076 178.266 349.876 179.105 349.457ZM236.807 298.125C240.828 300.744 248.977 305.982 249.396 305.982C249.921 305.982 260.937 315.934 263.559 324.315C264.609 324.838 266.707 327.248 266.707 332.695C266.332 332.695 265.822 332.735 265.271 332.777C264.024 332.873 262.568 332.986 261.986 332.695C261.146 332.276 253.243 333.219 249.396 333.743C248.347 330.076 245.514 321.905 242.577 318.553C242.927 318.029 243.101 316.143 241.003 312.791C238.38 308.601 234.184 299.696 236.807 298.125ZM206.382 346.838C209.18 346.663 214.985 346.628 215.824 347.885C217.223 347.187 220.545 346.209 222.644 347.885C224.742 349.561 235.058 347.885 239.954 346.838C240.304 348.933 241.213 353.018 242.052 352.599C241.528 353.123 241.633 356.266 246.249 364.647C246.424 367.266 247.193 372.503 248.872 372.503C250.55 372.503 249.221 374.599 248.347 375.646C247.298 376.868 244.361 379.522 241.003 380.36C236.807 381.408 231.037 382.979 228.938 384.027C227.26 384.865 219.496 383.678 215.824 382.979L215.3 384.027C213.202 382.281 208.48 379.103 206.382 380.36C204.459 378.614 200.402 375.437 199.563 376.694C198.514 378.265 196.416 371.98 197.465 372.503C198.304 372.922 198.863 365.694 199.038 362.028C201.137 358.186 205.333 350.399 205.333 349.98C205.333 349.899 205.32 349.779 205.305 349.632C205.22 348.841 205.054 347.28 206.382 346.838Z" fill="#810F23"/>
</svg>
